!! 00000] TT[WS
!!!OTL: Ku xinbing
!!!ARE: Asia, China, Shanxi Shuoyang
!! Ethnic Group: Han
!! WII, 119 (2)
!!!SCT: J0583
!!!YEM: Copyright 1995, estate of Helmut Schaffrath.
**kern
*ICvox
*Ivox
*M2/4
*k[b-]
*F:
{8dd
16dd
16cc
8dd
16dd
16cc
=1
8a
8dd
4cc
=2
16dd
16ff
16dd
16cc
16a
16cc
16a
16g
=3
4a
4d
=4
4g
4f}
=5
{8cc
16cc
16cc
8a
8cc
=6
8f
16a
16a
4g
=7
8.ff
16gg
8ee
16ee
16dd
=8
8.cc
16dd
4cc}
==
!!!AGN: Xiaodiao. Qingge, Aisu
!!!ONB: ESAC (Essen Associative Code) Database: CHINA
!!!AMT: simple duple
!!!AIN: vox
!!!EED: Helmut Schaffrath
!!!EEV: 1.0
*-
